utils/icons-generator/ic_input_color.svg

<?xml version="1.0" encoding="UTF-8"?>
<svg xmlns="http://www.w3.org/2000/svg" xmlns:xlink="http://www.w3.org/1999/xlink" width="1000pt" height="1000pt" viewBox="0 0 1000 1000" version="1.1">
<g id="surface1">
<path style=" stroke:none;fill-rule:nonzero;fill:rgb(0%,0%,0%);fill-opacity:1;" d="M 500 125 C 292.917969 125 125 292.917969 125 500 C 125 707.082031 292.917969 875 500 875 C 534.582031 875 562.5 847.082031 562.5 812.5 C 562.5 796.25 556.25 781.667969 546.25 770.417969 C 536.667969 759.582031 530.417969 745 530.417969 729.167969 C 530.417969 694.582031 558.332031 666.667969 592.917969 666.667969 L 666.667969 666.667969 C 781.667969 666.667969 875 573.332031 875 458.332031 C 875 274.167969 707.082031 125 500 125 Z M 270.832031 500 C 236.25 500 208.332031 472.082031 208.332031 437.5 C 208.332031 402.917969 236.25 375 270.832031 375 C 305.417969 375 333.332031 402.917969 333.332031 437.5 C 333.332031 472.082031 305.417969 500 270.832031 500 Z M 395.832031 333.332031 C 361.25 333.332031 333.332031 305.417969 333.332031 270.832031 C 333.332031 236.25 361.25 208.332031 395.832031 208.332031 C 430.417969 208.332031 458.332031 236.25 458.332031 270.832031 C 458.332031 305.417969 430.417969 333.332031 395.832031 333.332031 Z M 604.167969 333.332031 C 569.582031 333.332031 541.667969 305.417969 541.667969 270.832031 C 541.667969 236.25 569.582031 208.332031 604.167969 208.332031 C 638.75 208.332031 666.667969 236.25 666.667969 270.832031 C 666.667969 305.417969 638.75 333.332031 604.167969 333.332031 Z M 729.167969 500 C 694.582031 500 666.667969 472.082031 666.667969 437.5 C 666.667969 402.917969 694.582031 375 729.167969 375 C 763.75 375 791.667969 402.917969 791.667969 437.5 C 791.667969 472.082031 763.75 500 729.167969 500 Z M 729.167969 500 "/>
</g>
</svg>

<?xml version="1.0" encoding="UTF-8" standalone="no"?>
<svg
   xmlns:dc="http://purl.org/dc/elements/1.1/"
   xmlns:cc="http://creativecommons.org/ns#"
   xmlns:rdf="http://www.w3.org/1999/02/22-rdf-syntax-ns#"
   xmlns:svg="http://www.w3.org/2000/svg"
   xmlns="http://www.w3.org/2000/svg"
   xmlns:sodipodi="http://sodipodi.sourceforge.net/DTD/sodipodi-0.dtd"
   xmlns:inkscape="http://www.inkscape.org/namespaces/inkscape"
   width="1000pt"
   height="1000pt"
   viewBox="0 0 1000 1000"
   version="1.1"
   id="svg152"
   sodipodi:docname="ic_input_color.svg"
   inkscape:version="0.92.4 (5da689c313, 2019-01-14)">
  <metadata
     id="metadata158">
    <rdf:RDF>
      <cc:Work
         rdf:about="">
        <dc:format>image/svg+xml</dc:format>
        <dc:type
           rdf:resource="http://purl.org/dc/dcmitype/StillImage" />
      </cc:Work>
    </rdf:RDF>
  </metadata>
  <defs
     id="defs156" />
  <sodipodi:namedview
     pagecolor="#ffffff"
     bordercolor="#666666"
     borderopacity="1"
     objecttolerance="10"
     gridtolerance="10"
     guidetolerance="10"
     inkscape:pageopacity="0"
     inkscape:pageshadow="2"
     inkscape:window-width="2560"
     inkscape:window-height="1346"
     id="namedview154"
     showgrid="false"
     inkscape:zoom="0.177"
     inkscape:cx="666.66667"
     inkscape:cy="666.66667"
     inkscape:window-x="-11"
     inkscape:window-y="-11"
     inkscape:window-maximized="1"
     inkscape:current-layer="svg152" />
  <g
     id="surface1"
     transform="matrix(1.33,0,0,1.33,-165.00002,-165.00002)">
    <path
       style="fill:#000000;fill-opacity:1;fill-rule:nonzero;stroke:none"
       d="m 500,125 c -207.08203,0 -375,167.91797 -375,375 0,207.08203 167.91797,375 375,375 34.58203,0 62.5,-27.91797 62.5,-62.5 0,-16.25 -6.25,-30.83203 -16.25,-42.08203 -9.58203,-10.83594 -15.83203,-25.41797 -15.83203,-41.25 0,-34.58594 27.91406,-62.5 62.5,-62.5 h 73.75 C 781.66797,666.66797 875,573.33203 875,458.33203 875,274.16797 707.08203,125 500,125 Z M 270.83203,500 c -34.58203,0 -62.5,-27.91797 -62.5,-62.5 0,-34.58203 27.91797,-62.5 62.5,-62.5 34.58594,0 62.5,27.91797 62.5,62.5 0,34.58203 -27.91406,62.5 -62.5,62.5 z m 125,-166.66797 c -34.58203,0 -62.5,-27.91406 -62.5,-62.5 0,-34.58203 27.91797,-62.5 62.5,-62.5 34.58594,0 62.5,27.91797 62.5,62.5 0,34.58594 -27.91406,62.5 -62.5,62.5 z m 208.33594,0 c -34.58594,0 -62.5,-27.91406 -62.5,-62.5 0,-34.58203 27.91406,-62.5 62.5,-62.5 34.58203,0 62.5,27.91797 62.5,62.5 0,34.58594 -27.91797,62.5 -62.5,62.5 z m 125,166.66797 c -34.58594,0 -62.5,-27.91797 -62.5,-62.5 0,-34.58203 27.91406,-62.5 62.5,-62.5 34.58203,0 62.5,27.91797 62.5,62.5 0,34.58203 -27.91797,62.5 -62.5,62.5 z m 0,0"
       id="path149"
       inkscape:connector-curvature="0" />
  </g>
</svg>
